X:19
T:Weddington St. Rag
M:2/4
L:1/16
Q:120
K:C
c!|cdcA GAGE|_ECDE DCA,G,|_E2_E2 DCA,G,|C2G2 A2B2|:"C"cBcd cGEG|cdcA GcA
G|"Eb"_EFEC "D"DEDB,|"G"G,B,B,DB, "C"CEGB:|:"C"cBcd cGEG|cdcA GcAG|"Eb
"_EFEC "D"DEDB,|"G"G,B,B,DB, "C"CEGB:|D4D2E2|F4 A4|AGFEE4|E2EF EDB,C|D
4D2E2|F2FG A2GF|E4 E4|E4 GFE2| _E4_B4_E4_B4|  G4d4 G4d4| G2d2
E2B2 E4B4| E4B4 E2B2FcEB|_E4_B4  E2B2EF|D4 _D4|C4 C4|C4 C4
|z8|z8||
